app/assets/images/payment_icons/Deutsche_Bank.svg

<svg class="icon" width="38px" height="24px" viewBox="0 0 38 24" version="1.1" xmlns="http://www.w3.org/2000/svg" role="img" aria-labelledby="pi-deutsche_bank"><title id="pi-deutsche_bank">Deutsche Bank</title><path d="M307.2 1019.733333V8.533333h1011.2v1011.2H307.2z m140.8-136.533333h725.333333c4.266667 0 4.266667 0 4.266667-4.266667V157.866667c0-4.266667 0-4.266667-4.266667-4.266667H452.266667h-4.266667v729.6z" fill="#0018A8" /><path d="M533.333333 780.8H712.533333c4.266667 0 4.266667 0 8.533334-4.266667 123.733333-170.666667 251.733333-345.6 375.466666-516.266666l4.266667-4.266667h-174.933333c-4.266667 0-8.533333 0-8.533334 4.266667-123.733333 170.666667-251.733333 345.6-375.466666 516.266666-8.533333 0-8.533333 0-8.533334 4.266667z" fill="#FFFFFF" /><path d="M533.333333 780.8s0-4.266667 4.266667-4.266667c123.733333-170.666667 251.733333-345.6 375.466667-516.266666 4.266667-4.266667 4.266667-4.266667 8.533333-4.266667h174.933333c0 4.266667-4.266667 4.266667-4.266666 4.266667-123.733333 170.666667-251.733333 345.6-375.466667 516.266666 0 4.266667-4.266667 4.266667-8.533333 4.266667h-174.933334c4.266667 0 0 0 0 0z" fill="#0018A8" /></svg>

<svg class="icon" width="38" height="24" viewBox="0 0 38 24" version="1.1" xmlns="http://www.w3.org/2000/svg" role="img" aria-labelledby="pi-deutsche_bank"><title id="pi-deutsche_bank">Deutsche Bank</title><path d="M307.2 1019.733V8.533h1011.2v1011.2H307.2zM448 883.2h725.333c4.267 0 4.267 0 4.267-4.267V157.867c0-4.267 0-4.267-4.267-4.267H448v729.6z" fill="#0018A8"/><path d="M533.333 780.8h179.2c4.267 0 4.267 0 8.534-4.267C844.8 605.867 972.8 430.933 1096.533 260.267L1100.8 256H925.867c-4.267 0-8.534 0-8.534 4.267C793.6 430.933 665.6 605.867 541.867 776.533c-8.534 0-8.534 0-8.534 4.267z" fill="#FFF"/><path d="M533.333 780.8s0-4.267 4.267-4.267c123.733-170.666 251.733-345.6 375.467-516.266C917.333 256 917.333 256 921.6 256h174.933c0 4.267-4.266 4.267-4.266 4.267-123.734 170.666-251.734 345.6-375.467 516.266 0 4.267-4.267 4.267-8.533 4.267H533.333c4.267 0 0 0 0 0z" fill="#0018A8"/></svg>
